lib/flags/m/KIR.svg

<svg xmlns="http://www.w3.org/2000/svg" fill="none" viewBox="0 0 20 15"><mask id="KIR_svg__a" width="20" height="15" x="0" y="0" mask-type="alpha" maskUnits="userSpaceOnUse"><path fill="#fff" d="M0 0H20V15H0z"/></mask><g mask="url(#KIR_svg__a)"><path fill="#E31D1C" fill-rule="evenodd" d="M0 0V15H20V0H0Z" clip-rule="evenodd"/><mask id="KIR_svg__b" width="20" height="15" x="0" y="0" mask-type="alpha" maskUnits="userSpaceOnUse"><path fill="#fff" fill-rule="evenodd" d="M0 0V15H20V0H0Z" clip-rule="evenodd"/></mask><g mask="url(#KIR_svg__b)"><path fill="#FFC84A" fill-rule="evenodd" d="M9.57709 10.7356L9.86322 10.1152L10.1494 10.7356L10.3192 10.0744L10.7124 10.6343L10.7605 9.95364L11.2482 10.4348L11.173 9.75662L11.7395 10.1437L11.5434 9.48971L12.1704 9.77024L11.8597 9.16149L12.5272 9.32646L12.112 8.78252L12.7984 8.82662L12.2919 8.36496L12.9753 8.28678L12.3938 7.92225L13.0521 7.7243L12.4143 7.46862L13.0264 7.15726L12.3528 7.01863L12.8991 6.60387L12.2114 6.58677L12.6741 6.08193L11.9944 6.18689L12.3589 5.60821L11.709 5.83187L11.9634 5.19794L11.3642 5.5331L11.5004 4.86431L10.9712 5.3002L10.9848 4.61803L10.5426 5.14064L10.4332 4.46702L10.0921 5.05956L9.86322 4.41614L9.63432 5.05956L9.29326 4.46702L9.18386 5.14064L8.74161 4.61803L8.75524 5.3002L8.22602 4.86431L8.36223 5.5331L7.76304 5.19794L8.01746 5.83187L7.36757 5.60821L7.73202 6.18689L7.05231 6.08193L7.51507 6.58677L6.82739 6.60387L7.3736 7.01863L6.70005 7.15726L7.31215 7.46862L6.67438 7.7243L7.33269 7.92225L6.75119 8.28678L7.43456 8.36496L6.92804 8.82662L7.61449 8.78252L7.19922 9.32646L7.8667 9.16149L7.55602 9.77024L8.18308 9.48971L7.98698 10.1437L8.55346 9.75662L8.47824 10.4348L8.96594 9.95364L9.01402 10.6343L9.40725 10.0744L9.57709 10.7356Z" clip-rule="evenodd"/><path fill="#F7FCFF" fill-rule="evenodd" d="M-0.494992 8.7L1.13929 8.03675C1.37751 7.94008 1.64424 7.94125 1.8816 8.04003L4.15082 8.98437C4.40756 9.09121 4.69769 9.08351 4.9484 8.96319L6.77879 8.08479C7.04131 7.9588 7.34637 7.95656 7.61071 8.07868L9.52787 8.96435C9.78615 9.08367 10.0836 9.0844 10.3425 8.96635L12.3042 8.07174C12.563 7.95373 12.8603 7.95442 13.1186 8.07363L15.0554 8.96775C15.3095 9.08509 15.6019 9.08768 15.8581 8.97486L17.9744 8.043C18.2035 7.94211 18.4626 7.93309 18.6982 8.01779L20.5956 8.7V14.9585H-0.550598L-0.494992 8.7Z" clip-rule="evenodd"/><mask id="KIR_svg__c" width="22" height="8" x="-1" y="7" mask-type="alpha" maskUnits="userSpaceOnUse"><path fill="#fff" fill-rule="evenodd" d="M-0.494992 8.7L1.13929 8.03675C1.37751 7.94008 1.64424 7.94125 1.8816 8.04003L4.15082 8.98437C4.40756 9.09121 4.69769 9.08351 4.9484 8.96319L6.77879 8.08479C7.04131 7.9588 7.34637 7.95656 7.61071 8.07868L9.52787 8.96435C9.78615 9.08367 10.0836 9.0844 10.3425 8.96635L12.3042 8.07174C12.563 7.95373 12.8603 7.95442 13.1186 8.07363L15.0554 8.96775C15.3095 9.08509 15.6019 9.08768 15.8581 8.97486L17.9744 8.043C18.2035 7.94211 18.4626 7.93309 18.6982 8.01779L20.5956 8.7V14.9585H-0.550598L-0.494992 8.7Z" clip-rule="evenodd"/></mask><g mask="url(#KIR_svg__c)"><path stroke="#015989" stroke-width="1.25" d="M-.494995 10.1536 1.13928 9.49031C1.3775 9.39363 1.64424 9.39481 1.88159 9.49359L4.15081 10.4379C4.40756 10.5448 4.69769 10.5371 4.9484 10.4167L6.77878 9.53834C7.04131 9.41236 7.34636 9.41012 7.61071 9.53224L9.52786 10.4179C9.78614 10.5372 10.0836 10.538 10.3425 10.4199L12.3042 9.5253C12.563 9.40729 12.8603 9.40798 13.1186 9.52719L15.0554 10.4213C15.3095 10.5387 15.6019 10.5412 15.8581 10.4284L17.9744 9.49656C18.2035 9.39567 18.4626 9.38664 18.6982 9.47135L20.5956 10.1536M-.494995 12.2341 1.13928 11.5709C1.3775 11.4742 1.64424 11.4754 1.88159 11.5742L4.15081 12.5185C4.40756 12.6253 4.69769 12.6176 4.9484 12.4973L6.77878 11.6189C7.04131 11.4929 7.34636 11.4907 7.61071 11.6128L9.52786 12.4985C9.78614 12.6178 10.0836 12.6185 10.3425 12.5005L12.3042 11.6059C12.563 11.4879 12.8603 11.4885 13.1186 11.6078L15.0554 12.5019C15.3095 12.6192 15.6019 12.6218 15.8581 12.509L17.9744 11.5771C18.2035 11.4762 18.4626 11.4672 18.6982 11.5519L20.5956 12.2341"/><path fill="#015989" fill-rule="evenodd" d="M-0.494995 13.892L0.187295 13.6151C1.03542 13.2709 1.98508 13.2751 2.83013 13.6267L4.15081 14.1763C4.40756 14.2832 4.69769 14.2755 4.9484 14.1552L5.71747 13.7861C6.65214 13.3375 7.73823 13.3296 8.67938 13.7643L9.52786 14.1563C9.78614 14.2756 10.0836 14.2764 10.3425 14.1583L11.2606 13.7396C12.1819 13.3195 13.2406 13.3219 14.16 13.7464L15.0554 14.1597C15.3095 14.2771 15.6019 14.2796 15.8581 14.1668L17.0607 13.6373C17.8764 13.2781 18.799 13.246 19.6377 13.5476L20.5956 13.892V15.9638H-0.380234L-0.494995 13.892Z" clip-rule="evenodd"/></g><path fill="#FFC84A" fill-rule="evenodd" d="M6.11255 2.13649C6.11255 2.13649 6.9825 2.13649 7.27539 2.13649C7.56827 2.13649 8.22901 1.68866 8.61119 1.83794C8.99336 1.98721 9.63673 2.46915 9.63673 2.46915C9.63673 2.46915 10.6989 1.63071 11.3324 1.63071C11.966 1.63071 13.1087 1.53748 13.1087 1.53748C13.1087 1.53748 12.8406 2.23339 12.0865 2.35127C11.3324 2.46915 10.4302 3.04648 10.4302 3.04648C10.4302 3.04648 11.469 3.04648 11.6559 3.04648C11.8427 3.04648 12.0865 3.32823 12.0865 3.32823C12.0865 3.32823 11.5835 3.67 11.3324 3.67C11.0813 3.67 10.804 3.67 10.804 3.67C10.804 3.67 10.2701 4.12811 9.61064 4.03064C8.95114 3.93317 8.42199 3.32823 8.42199 3.32823C8.42199 3.32823 7.84498 3.24552 7.84498 3.146C7.84498 3.146 7.48944 2.96378 7.38241 3.146C7.27539 3.32823 7.84498 2.90197 7.84498 2.90197C7.84498 2.90197 8.07335 2.68775 8.24767 2.68775C8.42199 2.68775 9.00412 3.04648 9.00412 3.04648L9.14312 2.90197L8.42199 2.35127C6.9511 2.50539 6.11255 2.13649 6.11255 2.13649Z" clip-rule="evenodd"/></g></g></svg>

<svg xmlns="http://www.w3.org/2000/svg" fill="none" viewBox="0 0 20 15"><mask id="KIR_svg__a" width="20" height="15" x="0" y="0" maskUnits="userSpaceOnUse"><path fill="#fff" d="M0 0h20v15H0z"/></mask><g mask="url(#KIR_svg__a)"><path fill="#E31D1C" fill-rule="evenodd" d="M0 0v15h20V0H0z" clip-rule="evenodd"/><mask id="KIR_svg__b" width="20" height="15" x="0" y="0" maskUnits="userSpaceOnUse"><path fill="#fff" fill-rule="evenodd" d="M0 0v15h20V0H0z" clip-rule="evenodd"/></mask><g mask="url(#KIR_svg__b)"><path fill="#FFC84A" fill-rule="evenodd" d="M9.577 10.736l.286-.62.286.62.17-.662.393.56.049-.68.487.48-.075-.677.566.387-.196-.654.627.28-.31-.609.667.165-.415-.543.686.044-.506-.462.683-.078-.581-.365.658-.198-.638-.255.612-.312-.673-.138.546-.415-.688-.017.463-.505-.68.105.365-.579-.65.224.254-.634-.599.335.136-.669-.529.436.014-.682-.442.523-.11-.674-.34.593-.23-.644-.229.644-.34-.593-.11.674-.442-.523.013.682-.529-.436.136.67-.599-.336.254.634-.65-.224.365.579-.68-.105.463.505-.688.017.547.415-.674.138.612.312-.638.255.659.198-.582.365.684.078-.507.462.686-.044-.415.543.668-.165-.311.61.627-.281-.196.654.566-.387-.075.678.488-.481.048.68.393-.56.17.662z" clip-rule="evenodd"/><path fill="#F7FCFF" fill-rule="evenodd" d="M-.495 8.7l1.634-.663a.976.976 0 01.743.003l2.269.944c.257.107.547.1.797-.02l1.83-.88a.976.976 0 01.833-.005l1.917.885c.258.12.556.12.814.002l1.962-.894a.976.976 0 01.814.002l1.937.894c.255.117.547.12.803.007l2.116-.932a.98.98 0 01.724-.025l1.898.682v6.259H-.551L-.495 8.7z" clip-rule="evenodd"/><mask id="KIR_svg__c" width="22" height="8" x="-1" y="7" maskUnits="userSpaceOnUse"><path fill="#fff" fill-rule="evenodd" d="M-.495 8.7l1.634-.663a.976.976 0 01.743.003l2.269.944c.257.107.547.1.797-.02l1.83-.88a.976.976 0 01.833-.005l1.917.885c.258.12.556.12.814.002l1.962-.894a.976.976 0 01.814.002l1.937.894c.255.117.547.12.803.007l2.116-.932a.98.98 0 01.724-.025l1.898.682v6.259H-.551L-.495 8.7z" clip-rule="evenodd"/></mask><g mask="url(#KIR_svg__c)"><path stroke="#015989" stroke-width="1.25" d="M-.495 10.154l1.634-.664a.976.976 0 01.743.004l2.269.944c.257.107.547.1.797-.021l1.83-.879a.976.976 0 01.833-.006l1.917.886c.258.12.556.12.814.002l1.962-.895a.976.976 0 01.814.002l1.937.894c.255.118.547.12.803.008l2.116-.932a.98.98 0 01.724-.026l1.898.683m-21.091 2.08l1.634-.663a.977.977 0 01.743.003l2.269.945a.976.976 0 00.797-.022l1.83-.878a.976.976 0 01.833-.006l1.917.886c.258.119.556.12.814.002l1.962-.895a.976.976 0 01.814.002l1.937.894c.255.117.547.12.803.007l2.116-.932a.98.98 0 01.724-.025l1.898.682"/><path fill="#015989" fill-rule="evenodd" d="M-.495 13.892l.682-.277a3.477 3.477 0 012.643.012l1.32.55a.978.978 0 00.798-.022l.77-.369a3.476 3.476 0 012.961-.022l.849.392c.258.12.556.12.814.002l.918-.418a3.476 3.476 0 012.9.006l.895.414c.255.117.547.12.803.007l1.203-.53a3.476 3.476 0 012.577-.09l.958.345v2.072H-.38l-.115-2.072z" clip-rule="evenodd"/></g><path fill="#FFC84A" fill-rule="evenodd" d="M6.113 2.137h1.162c.293 0 .954-.448 1.336-.3.382.15 1.026.632 1.026.632s1.062-.838 1.695-.838c.634 0 1.777-.094 1.777-.094s-.268.696-1.023.814c-.754.118-1.656.696-1.656.696h1.226c.187 0 .43.281.43.281s-.502.342-.754.342h-.528s-.534.458-1.193.36c-.66-.097-1.189-.702-1.189-.702s-.577-.082-.577-.182c0 0-.356-.182-.463 0-.107.182.463-.244.463-.244s.228-.214.403-.214c.174 0 .756.358.756.358l.14-.144-.722-.55c-1.47.153-2.31-.215-2.31-.215z" clip-rule="evenodd"/></g></g></svg>
